!!!OTL: Bei der Lindn
!!!OTL-incipit: Bei der Lind'n bin i's gsessn bei der Lind'n sitz i's gern
!!!ARE: Europa, Mitteleuropa, Deutschland, Oberbayern, Woernsmuehl
!!!SCT: D0124
!!!TXL: @@BAR
!!!YEM: Copyright 1995, estate of Helmut Schaffrath.
**kern	**text
*ICvox	*
*M3/4	*
*k[f#]	*
*G:	*
{8d	Bei
8b/	der
=1	=1
4b/	Lin-
4a	-dn
8d	bin
8cc/	i's
=2	=2
4cc/	gse-
4b/}	-ssn,
{8d	bei
8b/	der
=3	=3
4b/	Lin-
4a	-dn
8d	sitß
8cc/	i's
=4	=4
4cc/	gern,
4b/}	ja
{4b/	da
=5	=5
(8cc/L	kann
8eeJ)	.
4ee/	ma,
8dd/	wanns
8ee/	recht
=6	=6
8cc/	wind-
8b/	-stad
(8gg/L	is,
8ddJ)}	.
{(8dd/L	as
8ggJ)	.
=7	=7
4ff#/	Herz-
8r	.
8cc/	-klop-
4cc/	-fa
=8	=8
2b/}	hör'n-
{4b/	da
=9	=9
(8cc/L	kann
8eeJ)	.
4ee/	ma,
8dd/	wanns
8ee/	recht
=10	=10
8cc/	wind-
8b/	-stad
(8gg/L	is,
8ddJ)}	.
{(8dd/L	as
8ggJ)	.
=11	=11
4ff#/	Herz-
8r	.
8cc/	-klop-
4cc/	-fa
=12	=12
2b/}	hör'n-
==	==
!!!AGN: Liebes - Lied
!! Zeilenwiederholung; zweistimmig ( parallele Terzen )
!!!ONB: ESAC (Essen Associative Code) Database: DVA
!!!AMT: simple triple
!!!AIN: vox
!!!EED: Helmut Schaffrath
!!!EEV: 1.0
!!!EFL: Flugschrift
!!!ENC: Anna Maria Matuszewska
!!!EEV: 2025/04/04
*-	*-
